Catalina-dark/actions/22/path-cut.svg

<svg xmlns="http://www.w3.org/2000/svg" viewBox="0 0 22 22">
  <defs id="defs3051">
    <style type="text/css" id="current-color-scheme">
      .ColorScheme-Text {
        color:#f2f2f2
      }
      </style>
  </defs>
 <path 
     style="fill:currentColor;fill-opacity:1;stroke:none"      
	 class="ColorScheme-Text"
        d="m 12.357702,3 a 6.0156658,6.0156658 0 0 0 -1.738903,0.4647519 l 0.673629,1.1671019 A 4.6788512,4.6788512 0 0 1 12.357702,4.3472585 L 12.357702,3 Z m 1.336815,0.00261 0,1.3472585 a 4.6788512,4.6788512 0 0 1 1.065274,0.2819843 L 15.430809,3.4699771 A 6.0156658,6.0156658 0 0 0 13.694517,3.0026141 Z M 9.462141,4.1357703 A 6.0156658,6.0156658 0 0 0 8.1879896,5.4099217 L 9.3550913,6.0809399 A 4.6788512,4.6788512 0 0 1 10.130548,5.2976501 L 9.462141,4.1357703 Z m 7.127938,0 -0.67102,1.1671017 A 4.6788512,4.6788512 0 0 1 16.70235,6.078329 L 17.86423,5.4099217 A 6.0156658,6.0156658 0 0 0 16.590079,4.1357703 Z m 1.945169,2.4308094 -1.167102,0.6736292 a 4.6788512,4.6788512 0 0 1 0.284596,1.0652741 l 1.347258,0 A 6.0156658,6.0156658 0 0 0 18.535248,6.5665797 Z M 7.5221932,6.5691906 A 6.0156658,6.0156658 0 0 0 7.0548303,8.305483 L 3,8.305483 3,19 l 10.694517,0 0,-4.052219 A 6.0156658,6.0156658 0 0 0 15.43342,14.483029 L 14.759791,13.315927 A 4.6788512,4.6788512 0 0 1 13.02611,13.652741 4.6788512,4.6788512 0 0 1 8.3994778,9.6422977 4.6788512,4.6788512 0 0 1 8.3472585,8.9738903 4.6788512,4.6788512 0 0 1 8.4020887,8.305483 4.6788512,4.6788512 0 0 1 8.6840731,7.2402089 L 7.5221932,6.5691906 Z m -3.1853786,3.0731071 2.7154047,0 A 6.0156658,6.0156658 0 0 0 12.357702,14.94517 l 0,2.718015 -8.0208874,0 0,-8.0208873 z m 13.3133154,0 a 4.6788512,4.6788512 0 0 1 -0.281984,1.0652743 l 1.161881,0.671018 a 6.0156658,6.0156658 0 0 0 0.467362,-1.7362923 l -1.347259,0 z m -0.953002,2.2245433 a 4.6788512,4.6788512 0 0 1 -0.775456,0.78329 l 0.668407,1.16188 a 6.0156658,6.0156658 0 0 0 1.274151,-1.274152 l -1.167102,-0.671018 z"
     />
</svg>

<svg viewBox="0 0 22 22" xmlns="http://www.w3.org/2000/svg">
<defs>
<style id="current-color-scheme" type="text/css">.ColorScheme-Text {
        color:#f2f2f2
      }</style>
</defs>
<path class="ColorScheme-Text" d="m12.358 3a6.0157 6.0157 0 0 0-1.7389 0.46475l0.67363 1.1671a4.6789 4.6789 0 0 1 1.0653-0.2846v-1.3473zm1.3368 0.00261v1.3473a4.6789 4.6789 0 0 1 1.0653 0.28198l0.67102-1.1619a6.0157 6.0157 0 0 0-1.7363-0.46736zm-4.2324 1.1332a6.0157 6.0157 0 0 0-1.2742 1.2742l1.1671 0.67102a4.6789 4.6789 0 0 1 0.77546-0.78329l-0.66841-1.1619zm7.1279 0-0.67102 1.1671a4.6789 4.6789 0 0 1 0.78329 0.77546l1.1619-0.66841a6.0157 6.0157 0 0 0-1.2742-1.2742zm1.9452 2.4308-1.1671 0.67363a4.6789 4.6789 0 0 1 0.2846 1.0653h1.3473a6.0157 6.0157 0 0 0-0.46475-1.7389zm-11.013 0.0026109a6.0157 6.0157 0 0 0-0.46736 1.7363h-4.0548v10.695h10.695v-4.0522a6.0157 6.0157 0 0 0 1.7389-0.46475l-0.67363-1.1671a4.6789 4.6789 0 0 1-1.7337 0.33681 4.6789 4.6789 0 0 1-4.6266-4.0104 4.6789 4.6789 0 0 1-0.052219-0.66841 4.6789 4.6789 0 0 1 0.05483-0.66841 4.6789 4.6789 0 0 1 0.28198-1.0653l-1.1619-0.67102zm-3.1854 3.0731h2.7154a6.0157 6.0157 0 0 0 5.3055 5.3029v2.718h-8.0209v-8.0209zm13.313 0a4.6789 4.6789 0 0 1-0.28198 1.0653l1.1619 0.67102a6.0157 6.0157 0 0 0 0.46736-1.7363h-1.3473zm-0.953 2.2245a4.6789 4.6789 0 0 1-0.77546 0.78329l0.66841 1.1619a6.0157 6.0157 0 0 0 1.2742-1.2742l-1.1671-0.67102z" fill="currentColor"/>
</svg>
